!!!OTL: Zhouzongli zai huazongzhong xiaole
!!!ARE: Asia, China,ÿQinghai Minhe
!! I, 227
!!!SCT: C1858
!!!YEM: Copyright 1995, estate of Helmut Schaffrath.
**kern
*ICvox
*Ivox
*M2/4
*k[f#c#g#]
*A:
{4cc#
8.ee
16cc#
=1
8cc#
8b
[4b
=2
2b]}
=3
{16cc#
16ee
4cc#
16b
16cc#
=4
4a
16b
16cc#
16b
16a
=5
8f#
16r
16f#
8.a
16b
=6
8.b
16cc#
16b
16a
8f#
=7
8f#
8e
[4e
=8
2e]}
=9
{8f#
16e
16f#
4a
=10
16cc#
16ee
8cc#
8cc#
8b
=11
[2b
=12
2b]
=13
16cc#
16b
16a
16f#
4e}
=14
{16f#
16a
16f#
16e
8c#
16r
16B
=15
8.e
16f#
8.b
16cc#
=16
16b
16a
8f#
8.f#
16e
=17
2e}
==
!!!AGN: Xiaodiao, Yanxiqu
!! Hui
!!!ONB: ESAC (Essen Associative Code) Database: SENGANSU
!!!AMT: simple duple
!!!AIN: vox
!!!EED: Helmut Schaffrath
!!!EEV: 1.0
*-
!!!ONB: Tied note syntax fixed by Craig Sapp, 2004/05/03/
